X:352
T:Paul's Steepl. 1665.
C:John Malchair's Third Collection of Tunes
F:https://www.vwml.org/record/Malchair/3619/p35
F:www.vwml.org/topics/historic-dance-and-tune-books/Malchair
Z:Eric Conrad Jan 2020
N:NB1 No repeats in MS.  Assuming tune is repeated.
M:2/4 % original in inverted alla breve with two half notes per measure
L:1/16
R:march
W:See another col 2 p 85.
K:Gdor % 1 flat ending on G
|: B3A G2A2 | B6 cB | A2F2 F2F2 | F6 F2 | G2G2 G2A2 | B2cB A2G2 |
d2d2 d2d2 | d6 c2 | B2B2 B2c2 | d4 c2B2 | c2c2 c2c2 |
c6 Bc | d2d2 c2B2 | A2G2 A3c | B2G2 G2G2 | G8 :|

